flaticon/travel/sunbed.svg

<svg xmlns="http://www.w3.org/2000/svg" width="32" height="32" viewBox="0 0 24 24">
    <path d="M 1.613281 20.398438 L 12.816406 20.398438 C 13.355469 20.398438 13.863281 20.25 14.285156 19.96875 L 21.132812 13.128906 C 21.433594 12.828125 21.601562 12.425781 21.601562 12 C 21.601562 11.570312 21.433594 11.167969 21.132812 10.867188 C 20.832031 10.566406 20.429688 10.398438 20 10.398438 C 19.574219 10.398438 19.171875 10.566406 18.871094 10.867188 L 13.582031 16.152344 L 18.652344 6.179688 C 18.65625 6.171875 18.65625 6.164062 18.65625 6.152344 C 18.90625 5.871094 19.34375 5.796875 19.703125 6.003906 C 19.902344 6.121094 20.042969 6.300781 20.105469 6.515625 C 20.164062 6.722656 20.140625 6.9375 20.035156 7.121094 C 20 7.183594 19.980469 7.253906 19.980469 7.320312 C 19.980469 7.457031 20.054688 7.59375 20.179688 7.667969 C 20.371094 7.777344 20.617188 7.710938 20.726562 7.519531 C 20.949219 7.140625 21.457031 7.015625 21.859375 7.25 C 22.273438 7.488281 22.425781 7.992188 22.207031 8.375 C 22.097656 8.566406 22.160156 8.808594 22.351562 8.921875 C 22.414062 8.957031 22.484375 8.972656 22.554688 8.972656 C 22.691406 8.972656 22.824219 8.902344 22.898438 8.773438 C 22.898438 8.773438 22.898438 8.773438 22.902344 8.773438 C 23.617188 7.53125 23.789062 6.101562 23.386719 4.753906 C 22.988281 3.425781 22.078125 2.296875 20.824219 1.570312 C 18.203125 0.0585938 15.007812 0.847656 13.546875 3.371094 C 13.546875 3.375 13.546875 3.375 13.546875 3.375 C 13.4375 3.566406 13.503906 3.808594 13.691406 3.921875 C 13.886719 4.03125 14.128906 3.964844 14.238281 3.773438 C 14.460938 3.390625 14.972656 3.273438 15.386719 3.511719 C 15.585938 3.625 15.726562 3.808594 15.789062 4.023438 C 15.847656 4.230469 15.824219 4.445312 15.71875 4.628906 C 15.683594 4.691406 15.664062 4.761719 15.664062 4.828125 C 15.664062 4.964844 15.738281 5.101562 15.863281 5.175781 C 16.054688 5.285156 16.300781 5.21875 16.410156 5.027344 C 16.632812 4.644531 17.140625 4.523438 17.542969 4.757812 C 17.742188 4.875 17.886719 5.054688 17.949219 5.269531 C 18.007812 5.476562 17.984375 5.691406 17.878906 5.875 C 17.847656 5.925781 17.835938 5.976562 17.828125 6.03125 L 12.15625 17.199219 L 1.613281 17.199219 C 0.730469 17.199219 0.015625 17.917969 0.015625 18.800781 C 0.015625 19.683594 0.730469 20.398438 1.613281 20.398438 Z M 17.945312 4.066406 C 17.515625 3.816406 17.019531 3.78125 16.589844 3.921875 C 16.578125 3.882812 16.570312 3.839844 16.558594 3.800781 C 16.4375 3.386719 16.164062 3.039062 15.785156 2.820312 C 15.601562 2.714844 15.410156 2.644531 15.210938 2.613281 C 16.609375 1.441406 18.667969 1.25 20.425781 2.261719 C 22.179688 3.277344 23.042969 5.15625 22.726562 6.953125 C 22.601562 6.796875 22.445312 6.664062 22.261719 6.558594 C 21.996094 6.40625 21.707031 6.332031 21.425781 6.332031 C 21.246094 6.332031 21.070312 6.359375 20.90625 6.414062 C 20.898438 6.375 20.886719 6.332031 20.875 6.292969 C 20.753906 5.878906 20.480469 5.53125 20.101562 5.3125 C 19.671875 5.0625 19.179688 5.027344 18.746094 5.167969 C 18.738281 5.128906 18.726562 5.085938 18.714844 5.046875 C 18.597656 4.632812 18.324219 4.285156 17.945312 4.066406 Z M 1.613281 18 L 12.867188 18 L 19.4375 11.433594 C 19.734375 11.132812 20.265625 11.132812 20.566406 11.433594 C 20.71875 11.582031 20.800781 11.785156 20.800781 12 C 20.800781 12.214844 20.71875 12.414062 20.566406 12.5625 L 13.808594 19.324219 C 13.523438 19.503906 13.183594 19.601562 12.816406 19.601562 L 1.613281 19.601562 C 1.171875 19.601562 0.816406 19.242188 0.816406 18.800781 C 0.816406 18.359375 1.171875 18 1.613281 18 Z M 1.613281 18"/>
    <path d="M23.34375 21.980469L22.164062 20.800781 18.765625 17.398438 23.882812 12.28125C24.039062 12.125 24.039062 11.875 23.882812 11.71875 23.726562 11.5625 23.472656 11.5625 23.316406 11.71875L14.234375 20.800781 0 20.800781 0 22.800781 23.003906 22.800781C23.015625 22.800781 23.023438 22.796875 23.03125 22.796875L23.316406 23.082031C23.394531 23.160156 23.496094 23.199219 23.601562 23.199219 23.703125 23.199219 23.804688 23.160156 23.882812 23.082031 24.039062 22.925781 24.039062 22.671875 23.882812 22.515625zM18.199219 17.964844L21.035156 20.800781 15.367188 20.800781zM.800781 22L.800781 21.601562 21.835938 21.601562 22.234375 22zM2.800781 5.601562L3.628906 5.601562C3.699219 6.183594 3.929688 6.71875 4.273438 7.160156L3.6875 7.746094C3.53125 7.902344 3.53125 8.15625 3.6875 8.3125 3.765625 8.390625 3.867188 8.429688 3.972656 8.429688 4.074219 8.429688 4.175781 8.390625 4.253906 8.3125L4.839844 7.726562C5.28125 8.070312 5.816406 8.300781 6.398438 8.371094L6.398438 9.199219C6.398438 9.421875 6.578125 9.601562 6.800781 9.601562 7.019531 9.601562 7.199219 9.421875 7.199219 9.199219L7.199219 8.371094C7.78125 8.300781 8.316406 8.070312 8.757812 7.726562L9.34375 8.3125C9.421875 8.390625 9.527344 8.429688 9.628906 8.429688 9.730469 8.429688 9.832031 8.390625 9.910156 8.3125 10.066406 8.15625 10.066406 7.902344 9.910156 7.746094L9.324219 7.160156C9.667969 6.71875 9.898438 6.183594 9.972656 5.601562L10.800781 5.601562C11.019531 5.601562 11.199219 5.421875 11.199219 5.199219 11.199219 4.980469 11.019531 4.800781 10.800781 4.800781L9.972656 4.800781C9.898438 4.21875 9.667969 3.683594 9.324219 3.242188L9.910156 2.65625C10.066406 2.496094 10.066406 2.246094 9.910156 2.089844 9.753906 1.933594 9.503906 1.933594 9.347656 2.089844L8.757812 2.675781C8.316406 2.332031 7.78125 2.101562 7.199219 2.027344L7.199219 1.199219C7.199219.980469 7.019531.800781 6.800781.800781 6.578125.800781 6.402344.980469 6.402344 1.199219L6.402344 2.027344C5.816406 2.101562 5.285156 2.332031 4.839844 2.675781L4.253906 2.089844C4.097656 1.933594 3.84375 1.933594 3.6875 2.089844 3.53125 2.246094 3.53125 2.496094 3.6875 2.65625L4.277344 3.242188C3.929688 3.683594 3.699219 4.21875 3.628906 4.800781L2.800781 4.800781C2.578125 4.800781 2.398438 4.980469 2.398438 5.199219 2.398438 5.421875 2.578125 5.601562 2.800781 5.601562zM6.800781 2.800781C8.125 2.800781 9.199219 3.875 9.199219 5.199219 9.199219 6.523438 8.125 7.601562 6.800781 7.601562 5.476562 7.601562 4.398438 6.523438 4.398438 5.199219 4.398438 3.875 5.476562 2.800781 6.800781 2.800781zM6.800781 2.800781"/>
</svg>

<svg xmlns="http://www.w3.org/2000/svg" width="32" height="32" viewBox="0 0 24 24">
    <path d="M1.613 20.398h11.203c.54 0 1.047-.148 1.47-.43l6.847-6.84c.3-.3.469-.702.469-1.128 0-.43-.168-.832-.47-1.133-.3-.3-.702-.469-1.132-.469a1.59 1.59 0 0 0-1.129.47l-5.289 5.284 5.07-9.972c.004-.008.004-.016.004-.028a.84.84 0 0 1 1.047-.148c.2.117.34.297.402.512a.779.779 0 0 1-.07.605.414.414 0 0 0-.055.2.41.41 0 0 0 .2.347c.191.11.437.043.547-.148.222-.38.73-.504 1.132-.27.414.238.567.742.348 1.125a.401.401 0 0 0 .145.547c.062.035.132.05.203.05.136 0 .27-.07.343-.199h.004a5.08 5.08 0 0 0 .485-4.02c-.399-1.327-1.309-2.456-2.563-3.183-2.62-1.511-5.816-.722-7.277 1.801v.004a.405.405 0 0 0 .144.547.4.4 0 0 0 .547-.149c.223-.382.735-.5 1.149-.261.199.113.34.297.402.511a.779.779 0 0 1-.07.606.414.414 0 0 0-.055.2.41.41 0 0 0 .2.347c.19.11.437.043.546-.149.223-.382.73-.504 1.133-.27a.88.88 0 0 1 .406.513.779.779 0 0 1-.07.605.387.387 0 0 0-.05.156L12.155 17.2H1.613a1.6 1.6 0 0 0 0 3.2zM17.945 4.066a1.667 1.667 0 0 0-1.355-.144c-.012-.04-.02-.082-.031-.121a1.668 1.668 0 0 0-.774-.98 1.667 1.667 0 0 0-.574-.208c1.398-1.172 3.457-1.363 5.215-.351 1.754 1.015 2.617 2.894 2.3 4.691a1.631 1.631 0 0 0-.464-.394 1.682 1.682 0 0 0-1.356-.145 1.668 1.668 0 0 0-.805-1.102 1.665 1.665 0 0 0-1.355-.144 1.647 1.647 0 0 0-.8-1.102zM1.613 18h11.254l6.57-6.566c.297-.301.829-.301 1.13 0A.785.785 0 0 1 20.8 12a.776.776 0 0 1-.235.563l-6.757 6.761c-.286.18-.625.278-.993.278H1.613a.799.799 0 0 1-.797-.801c0-.442.356-.801.797-.801zm0 0"/>
    <path d="M23.344 21.98l-1.18-1.18-3.398-3.402 5.117-5.117a.396.396 0 0 0 0-.562.4.4 0 0 0-.567 0L14.234 20.8H0v2h23.004c.012 0 .02-.004.027-.004l.285.285a.399.399 0 0 0 .567 0 .4.4 0 0 0 0-.566zm-5.145-4.015l2.836 2.836h-5.668zM.801 22v-.398h21.035l.398.398zm0 0M2.8 5.602h.829c.07.582.3 1.117.644 1.558l-.585.586a.4.4 0 0 0 .566.566l.586-.585c.441.343.976.574 1.558.644V9.2a.401.401 0 0 0 .8 0l.001-.828c.582-.07 1.117-.3 1.559-.644l.586.585a.405.405 0 0 0 .285.118.4.4 0 0 0 .281-.684l-.586-.586c.344-.441.574-.976.649-1.558h.828a.401.401 0 0 0 0-.801h-.828a3.193 3.193 0 0 0-.649-1.559l.586-.586a.4.4 0 0 0 0-.566.396.396 0 0 0-.562 0l-.59.586a3.193 3.193 0 0 0-1.559-.649V1.2a.398.398 0 1 0-.797 0v.828a3.206 3.206 0 0 0-1.562.649l-.586-.586a.4.4 0 0 0-.566.566l.59.586a3.121 3.121 0 0 0-.65 1.559h-.827a.401.401 0 1 0 0 .8zm4-2.801a2.399 2.399 0 0 1 2.4 2.398 2.402 2.402 0 0 1-2.4 2.403 2.406 2.406 0 0 1-2.402-2.403 2.402 2.402 0 0 1 2.403-2.398zm0 0"/>
</svg>
